X:1
T:Harare, 86.86.86.86.86.86
T:Daniel Brink Towner, 1896
T:Harare, 86.86.86.86.86.86
T:Public Domain
T:Public Domain
C:Daniel Brink Towner, 1896
Z:Public Domain
%%score ( 1 2 ) ( 3 4 )
L:1/8
M:4/4
K:Eb
V:1 treble 
V:2 treble 
V:3 bass 
V:4 bass 
V:1
 E2 | [EG]3 [FA] [GB][EG] [DF]>[DG] | E6 E2 | [EA]3 [Ac] [ce]2 [Ac]2 | [GB]6 [GB]2 | %5
 [F=A]3 [DB] [Ec][EF][EG][EA] | [DB]6 [Fd]2 | [=Ec]2 F2 [F=A]3 [EG] | F6 F2 | %9
 [Fe]3 [Fc] [F=A]2 F2 | [FB]3 [Fc] [Fd]2 [Gd]2 | [^Fd]3 [F=A] [GB]2 G2 | [^F=A]6 [DA]2 | %13
 [DB]3 [EG] E2 [EG]2 | [Fd]2 [Fc]2 [FA]3 [CF] | [B,E]2 [EG]2 ([EG] [DF]2) E | E6 [GB]2 | %17
 [GB]3 [^F=A] [_Ac][GB] [EG]>[B,E] | [B,D]6 ([DF][EG]) | [DA]2 [DF]2 [Fd]3 [Ac] | [GB]6 [GB]2 | %21
 [Ge]3 [GB] [FA][EG] [EG]>[EF] | [Ec]6 (de) | [Ge]4 [EB] [EB]3 | ([EG] [DF]2) E E2 |] %25
V:2
 E2 | x8 | E6 E2 | x8 | x8 | x8 | x8 | x2 F2 x4 | F6 F2 | x6 F2 | x8 | x6 G2 | x8 | x4 E2 x2 | x8 | %15
 x7 E | E6 x2 | x8 | x8 | x8 | x8 | x8 | x6 A2 | x8 | x3 E E2 |] %25
V:3
 [E,G,]2 | [E,B,]3 [E,B,] [E,B,][E,B,] [B,,A,]>[B,,B,] | [E,G,]6 [E,G,]2 | %3
 [A,,C]3 [A,,E] [A,,E]2 [C,E]2 | [E,E]6 [E,E]2 | [F,C]3 [F,B,] [F,=A,][F,A,][F,A,]F, | %6
 [B,,F,]6 [B,,B,]2 | [C,B,]2 [C,=A,]2 [C,C]3 [C,B,] | [F,=A,]6 [F,A,]2 | %9
 [F,=A,]3 [F,A,] [F,C]2 ([F,A,][E,C]) | [D,B,]3 [F,=A,] B,2 [G,B,]2 | %11
 [D,=A,]3 [D,C] [G,B,]2 [E,B,]2 | [D,D]6 [^F,C]2 | [G,B,]3 [E,B,] [E,G,]2 [E,B,]2 | %14
 [A,C]2 A,2 [A,C]3 [A,,A,] | [B,,G,]2 [B,,B,]2 (B, A,2) [E,G,] | [E,G,]6 [E,E]2 | %17
 [E,E]3 [E,E] [E,E][E,E] [E,B,]>[E,G,] | (F,3 D, B,,2) (A,G,) | [F,B,]2 [B,,B,]2 [B,,B,]3 [B,,D] | %20
 [E,E]6 [E,E]2 | [E,B,]3 [E,E] [E,E][E,B,] [A,C]>[A,C] | A,6 (=B,C) | [E,B,]4 [E,G,] [E,G,]3 | %24
 (B, A,2) [E,G,] [E,G,]2 |] %25
V:4
 x2 | x8 | x8 | x8 | x8 | x7 F, | x8 | x8 | x8 | x8 | x4 B,2 x2 | x8 | x8 | x8 | x2 A,2 x4 | %15
 x4 B,,3 x | x8 | x8 | A,6 B,2 | x8 | x8 | x8 | A,6 A,2 | x8 | B,,3 x3 |] %25

